X: 125005
T: HAPPY WE'VE BEEN A' THEGITHER
R: Waltz.
%R: waltz
B: James Kerr "Merry Melodies" v.1 p.25 s.0 #5
Z: 2017 John Chambers <jc:trillian.mit.edu>
M: 3/4
L: 1/4
K: D
uA |\
(F2A) | (A2B) | (d2e) | (d2A) |\
(F2A) | (A2f) | (e2d) | (B2A) |\
(F2A) | (A2B) | (d2e) | (d2A) |\
(F2A) | (A2f) | (e2d) | d2 |]
ug |\
(f2a) | (e2f) | (d2e) | (f2d) |\
(f2a) | (e2f) | g/f/e/f/e/d/ | B2 g |\
(f2a) | (e2f) | (d2e) | (f2g) |\
(a2A) | (A2f) | "_D.C. to Allegro."(e2d) | d2 |]

%%sep 1 1 500
%%sep 1 1 500

